packages/foundations/assets/icons/functional/images/notification/question_mark_circle_32.svg

<svg width="32" height="32" viewBox="0 0 32 32" fill="none" xmlns="http://www.w3.org/2000/svg">
<g clip-path="url(#clip0_187_198)">
<path fill-rule="evenodd" clip-rule="evenodd" d="M16 2C23.72 2 30 8.28 30 16C30 23.72 23.72 30 16 30C8.28 30 2 23.72 2 16C2 8.28 8.28 2 16 2ZM16 4C9.383 4 4 9.383 4 16C4 22.617 9.383 28 16 28C22.617 28 28 22.617 28 16C28 9.383 22.617 4 16 4ZM14.4932 17.567C14.4932 18.119 14.9402 18.565 15.4912 18.565C16.0422 18.565 16.4892 18.119 16.4892 17.567C16.4892 15.571 20.1202 15.941 20.1202 11.996C20.1202 10.002 18.5092 8.5 16.3722 8.5C14.8472 8.5 12.7502 8.807 12.7502 9.989C12.7502 10.532 13.1982 10.986 13.7482 10.986C14.6792 10.986 14.8952 10.496 16.3722 10.496C17.2442 10.496 18.1252 10.96 18.1252 11.996C18.1252 14.811 14.4932 14.164 14.4932 17.567ZM16.8992 21.875C16.8992 22.633 16.2832 23.249 15.5252 23.249C14.7652 23.249 14.1502 22.633 14.1502 21.875C14.1502 21.116 14.7652 20.5 15.5252 20.5C16.2832 20.5 16.8992 21.116 16.8992 21.875Z" fill="#1A1C1F"/>
</g>
<defs>
<clipPath id="clip0_187_198">
<rect width="32" height="32" fill="white"/>
</clipPath>
</defs>
</svg>

<svg xmlns="http://www.w3.org/2000/svg" width="32" height="32" fill="none"><g clip-path="url(#a)"><path fill="#1A1C1F" fill-rule="evenodd" d="M16 2c7.72 0 14 6.28 14 14s-6.28 14-14 14S2 23.72 2 16 8.28 2 16 2m0 2C9.383 4 4 9.383 4 16s5.383 12 12 12 12-5.383 12-12S22.617 4 16 4m-1.507 13.567a.998.998 0 1 0 1.996 0c0-1.996 3.631-1.626 3.631-5.571 0-1.994-1.61-3.496-3.748-3.496-1.525 0-3.622.307-3.622 1.489 0 .543.448.997.998.997.931 0 1.147-.49 2.624-.49.872 0 1.753.464 1.753 1.5 0 2.815-3.632 2.168-3.632 5.571m2.406 4.308a1.375 1.375 0 1 1-2.75-.002 1.375 1.375 0 0 1 2.75.002" clip-rule="evenodd"/></g><defs><clipPath id="a"><path fill="#fff" d="M0 0h32v32H0z"/></clipPath></defs></svg>
